X: 30433
T: Old Torn Petticoat, The
R: reel
M: 4/4
K: Adorian
|:AB|cABG AGEF|G2 BG dGBG|cABG AGED|EAAG A2 AB|
cABG AGEF|G2 BG dGBG|cABG AGED|EAAB A2:|
AB|cdef g2 ea|afge dBGA|Bdef gefd|eaag a2 AB|
cdef g2 ea|afge dBGB|cABG AGED|EAAB A2||
AB|cdef g2 ea|afge dBGA|Bdef gefd|eaag a2 ga|
bagb agef|gfge dBGB|cABG AGED|EAAG A2||

